icon.svg

<?xml version="1.0" encoding="UTF-8" standalone="no"?>
<!-- Created with Inkscape (http://www.inkscape.org/) -->

<svg
   xmlns:dc="http://purl.org/dc/elements/1.1/"
   xmlns:cc="http://creativecommons.org/ns#"
   xmlns:rdf="http://www.w3.org/1999/02/22-rdf-syntax-ns#"
   xmlns:svg="http://www.w3.org/2000/svg"
   xmlns="http://www.w3.org/2000/svg"
   xmlns:xlink="http://www.w3.org/1999/xlink"
   xmlns:sodipodi="http://sodipodi.sourceforge.net/DTD/sodipodi-0.dtd"
   xmlns:inkscape="http://www.inkscape.org/namespaces/inkscape"
   width="78.738846mm"
   height="78.738861mm"
   viewBox="0 0 278.99607 278.99603"
   id="svg2"
   version="1.1"
   inkscape:version="0.91 r13725"
   sodipodi:docname="icon.svg">
  <defs
     id="defs4">
    <linearGradient
       inkscape:collect="always"
       id="linearGradient4237">
      <stop
         style="stop-color:#8e0000;stop-opacity:1"
         offset="0"
         id="stop4239" />
      <stop
         id="stop4245"
         offset="0.5"
         style="stop-color:#e2433d;stop-opacity:1;" />
      <stop
         style="stop-color:#ff5f52;stop-opacity:1"
         offset="1"
         id="stop4241" />
    </linearGradient>
    <linearGradient
       inkscape:collect="always"
       xlink:href="#linearGradient4237"
       id="linearGradient4243"
       x1="384.15808"
       y1="625.62549"
       x2="384.15808"
       y2="346.82339"
       gradientUnits="userSpaceOnUse"
       gradientTransform="translate(-173.78557,-314.3914)" />
  </defs>
  <sodipodi:namedview
     id="base"
     pagecolor="#ffffff"
     bordercolor="#666666"
     borderopacity="1.0"
     inkscape:pageopacity="0.0"
     inkscape:pageshadow="2"
     inkscape:zoom="0.9899495"
     inkscape:cx="339.78264"
     inkscape:cy="59.738486"
     inkscape:document-units="px"
     inkscape:current-layer="layer1"
     showgrid="false"
     showguides="true"
     inkscape:guide-bbox="true"
     inkscape:window-width="1920"
     inkscape:window-height="983"
     inkscape:window-x="0"
     inkscape:window-y="27"
     inkscape:window-maximized="1"
     fit-margin-top="0"
     fit-margin-left="0"
     fit-margin-right="0"
     fit-margin-bottom="0" />
  <metadata
     id="metadata7">
    <rdf:RDF>
      <cc:Work
         rdf:about="">
        <dc:format>image/svg+xml</dc:format>
        <dc:type
           rdf:resource="http://purl.org/dc/dcmitype/StillImage" />
        <dc:title></dc:title>
      </cc:Work>
    </rdf:RDF>
  </metadata>
  <g
     inkscape:label="Layer 1"
     inkscape:groupmode="layer"
     id="layer1"
     transform="translate(-288.57311,-274.7931)">
    <path
       style="fill:url(#linearGradient4243);fill-opacity:1;stroke:none;stroke-width:1.00288081;stroke-linecap:round;stroke-linejoin:round;stroke-miterlimit:4;stroke-dasharray:none;stroke-dashoffset:0;stroke-opacity:1"
       d="m 88.080078,31.830078 c -16.861559,0 -30.435547,13.573988 -30.435547,30.435547 l 0,218.124995 c 0,16.86156 13.573988,30.43555 30.435547,30.43555 l 117.777342,0 c -28.05144,-10.58504 -47.40187,-34.05366 -52.04883,-62.03906 -3.32157,-20.00356 -0.0121,-39.86502 13.70118,-59.83594 l -43.05079,0.082 -0.0312,-157.203122 z m 69.205082,0 -0.10352,123.533202 65.55469,-0.0195 c 28.37978,0.2505 42.38874,1.01965 68.14844,23.44141 l -22.70508,22.18554 c -22.65671,-23.73197 -57.67481,-12.60291 -70.74024,4.91016 -18.38883,24.64863 -7.12077,54.49612 8.30664,66.92383 25.41516,20.47344 57.7876,5.32278 63.08203,-3.27735 l 21.80079,22.01563 c -6.52703,7.07483 -18.68801,14.05203 -30.09766,19.2832 l 45.67383,0 c 16.86156,0 30.43554,-13.57399 30.43554,-30.43555 l 0,-218.124995 c 0,-16.861559 -13.57398,-30.435547 -30.43554,-30.435547 z"
       transform="translate(230.92858,242.96298)"
       id="rect4201"
       inkscape:connector-curvature="0"
       sodipodi:nodetypes="sssscscccscccccsscccssssc" />
  </g>
</svg>

<?xml version="1.0" encoding="UTF-8" standalone="no"?>
<!-- Created with Inkscape (http://www.inkscape.org/) -->

<svg
   xmlns:dc="http://purl.org/dc/elements/1.1/"
   xmlns:cc="http://creativecommons.org/ns#"
   xmlns:rdf="http://www.w3.org/1999/02/22-rdf-syntax-ns#"
   xmlns:svg="http://www.w3.org/2000/svg"
   xmlns="http://www.w3.org/2000/svg"
   xmlns:xlink="http://www.w3.org/1999/xlink"
   xmlns:sodipodi="http://sodipodi.sourceforge.net/DTD/sodipodi-0.dtd"
   xmlns:inkscape="http://www.inkscape.org/namespaces/inkscape"
   width="275.02222mm"
   height="108.02222mm"
   viewBox="0 0 974.48874 382.75597"
   id="svg2"
   version="1.1"
   inkscape:version="0.91 r13725"
   sodipodi:docname="icon.svg">
  <defs
     id="defs4">
    <linearGradient
       inkscape:collect="always"
       id="linearGradient4237">
      <stop
         style="stop-color:#8e0000;stop-opacity:1"
         offset="0"
         id="stop4239" />
      <stop
         id="stop4245"
         offset="0.5"
         style="stop-color:#e2433d;stop-opacity:1;" />
      <stop
         style="stop-color:#ff5f52;stop-opacity:1"
         offset="1"
         id="stop4241" />
    </linearGradient>
    <linearGradient
       inkscape:collect="always"
       xlink:href="#linearGradient4237"
       id="linearGradient4243"
       x1="384.15808"
       y1="625.62549"
       x2="384.15808"
       y2="346.82339"
       gradientUnits="userSpaceOnUse"
       gradientTransform="translate(-173.78557,-314.3914)" />
  </defs>
  <sodipodi:namedview
     id="base"
     pagecolor="#ffffff"
     bordercolor="#666666"
     borderopacity="1.0"
     inkscape:pageopacity="0.0"
     inkscape:pageshadow="2"
     inkscape:zoom="0.9899495"
     inkscape:cx="330.76902"
     inkscape:cy="133.67513"
     inkscape:document-units="px"
     inkscape:current-layer="layer1"
     showgrid="false"
     showguides="true"
     inkscape:guide-bbox="true"
     inkscape:window-width="1920"
     inkscape:window-height="983"
     inkscape:window-x="0"
     inkscape:window-y="27"
     inkscape:window-maximized="1"
     fit-margin-top="0"
     fit-margin-left="0"
     fit-margin-right="0"
     fit-margin-bottom="0">
    <sodipodi:guide
       position="346.86133,248.49758"
       orientation="1,0"
       id="guide4213" />
    <sodipodi:guide
       position="390.35737,168.57146"
       orientation="1,0"
       id="guide4233" />
    <sodipodi:guide
       position="504.64315,160.35718"
       orientation="1,0"
       id="guide4235" />
    <sodipodi:guide
       position="451.42884,185.00004"
       orientation="1,0"
       id="guide4237" />
    <sodipodi:guide
       position="443.57169,151.4286"
       orientation="1,0"
       id="guide4239" />
    <sodipodi:guide
       position="557.85747,203.57147"
       orientation="1,0"
       id="guide4241" />
    <sodipodi:guide
       position="432.8574,190.35718"
       orientation="0,1"
       id="guide4243" />
    <sodipodi:guide
       position="526.42888,177.14289"
       orientation="0,1"
       id="guide4245" />
    <sodipodi:guide
       position="529.64317,297.14292"
       orientation="0,1"
       id="guide4247" />
    <sodipodi:guide
       position="643.57181,72.142872"
       orientation="0,1"
       id="guide4249" />
    <sodipodi:guide
       position="410.71453,243.92862"
       orientation="0,1"
       id="guide4251" />
    <sodipodi:guide
       position="504.64315,125.35717"
       orientation="0,1"
       id="guide4253" />
    <sodipodi:guide
       position="602.05127,243.92862"
       orientation="1,0"
       id="guide4269" />
    <sodipodi:guide
       position="825.71477,93.214305"
       orientation="1,0"
       id="guide4307" />
    <sodipodi:guide
       position="836.78621,67.321442"
       orientation="0,1"
       id="guide4311" />
  </sodipodi:namedview>
  <metadata
     id="metadata7">
    <rdf:RDF>
      <cc:Work
         rdf:about="">
        <dc:format>image/svg+xml</dc:format>
        <dc:type
           rdf:resource="http://purl.org/dc/dcmitype/StillImage" />
        <dc:title></dc:title>
      </cc:Work>
    </rdf:RDF>
  </metadata>
  <g
     inkscape:label="Layer 1"
     inkscape:groupmode="layer"
     id="layer1"
     transform="translate(-230.92858,-242.96306)">
    <path
       style="fill:url(#linearGradient4243);fill-opacity:1;stroke:none;stroke-width:1.00288081;stroke-linecap:round;stroke-linejoin:round;stroke-miterlimit:4;stroke-dasharray:none;stroke-dashoffset:0;stroke-opacity:1"
       d="M 88.080078 31.830078 C 71.218519 31.830078 57.644531 45.404066 57.644531 62.265625 L 57.644531 280.39062 C 57.644531 297.25218 71.218519 310.82617 88.080078 310.82617 L 205.85742 310.82617 C 177.80598 300.24113 158.45555 276.77251 153.80859 248.78711 C 150.48702 228.78355 153.79652 208.92209 167.50977 188.95117 L 124.45898 189.0332 L 124.42773 31.830078 L 88.080078 31.830078 z M 157.28516 31.830078 L 157.18164 155.36328 L 222.73633 155.34375 C 251.11611 155.59425 265.12507 156.3634 290.88477 178.78516 L 268.17969 200.9707 C 245.52298 177.23873 210.50488 188.36779 197.43945 205.88086 C 179.05062 230.52949 190.31868 260.37698 205.74609 272.80469 C 231.16125 293.27813 263.53369 278.12747 268.82812 269.52734 L 290.62891 291.54297 C 284.10188 298.6178 271.9409 305.595 260.53125 310.82617 L 306.20508 310.82617 C 323.06664 310.82617 336.64062 297.25218 336.64062 280.39062 L 336.64062 62.265625 C 336.64062 45.404066 323.06664 31.830078 306.20508 31.830078 L 157.28516 31.830078 z M 671.22461 34.898438 L 671.22461 192.39844 L 699.98633 192.39844 L 699.98633 34.898438 L 671.22461 34.898438 z M 390.53711 85.453125 A 53.285405 53.285405 0 0 0 346.86133 108.32422 L 346.86133 169.22461 A 53.285405 53.285405 0 0 0 390.53711 192.02539 A 53.285405 53.285405 0 0 0 443.82227 138.73828 A 53.285405 53.285405 0 0 0 390.53711 85.453125 z M 633.61719 85.613281 L 633.61719 95.904297 A 53.285405 53.285405 0 0 0 602.37695 85.705078 A 53.285405 53.285405 0 0 0 549.0918 138.99023 A 53.285405 53.285405 0 0 0 602.37695 192.27734 A 53.285405 53.285405 0 0 0 633.61719 182.09375 L 633.61719 192.39844 L 662.66016 192.39844 L 662.66016 85.613281 L 633.61719 85.613281 z M 504.64453 85.826172 A 53.285405 53.285405 0 0 0 451.35938 139.11133 A 53.285405 53.285405 0 0 0 504.64453 192.39844 A 53.285405 53.285405 0 0 0 542.31641 176.75391 L 521.0918 155.38867 A 23.107179 23.107179 0 0 1 504.5625 162.38086 A 23.107179 23.107179 0 0 1 481.45508 139.27344 A 23.107179 23.107179 0 0 1 504.5625 116.16602 A 23.107179 23.107179 0 0 1 520.70312 122.76758 L 542.16211 101.30859 A 53.285405 53.285405 0 0 0 504.64453 85.826172 z M 390.45508 115.79297 A 23.107179 23.107179 0 0 1 413.5625 138.90039 A 23.107179 23.107179 0 0 1 390.45508 162.00781 A 23.107179 23.107179 0 0 1 367.34766 138.90039 A 23.107179 23.107179 0 0 1 390.45508 115.79297 z M 602.29492 116.04492 A 23.107179 23.107179 0 0 1 625.40234 139.15234 A 23.107179 23.107179 0 0 1 602.29492 162.25977 A 23.107179 23.107179 0 0 1 579.1875 139.15234 A 23.107179 23.107179 0 0 1 602.29492 116.04492 z M 567.45898 184.77734 L 567.45898 310.78125 L 596.2207 310.78125 L 596.2207 283.36328 L 624.7793 310.61328 L 661.39648 310.61328 L 608.49023 257.39844 L 664.17578 205.61328 L 624.52734 205.61328 L 596.2207 230.14258 L 596.2207 196.11523 A 57.58651 57.58651 0 0 1 567.45898 184.77734 z M 390.53711 204.39844 A 53.285405 53.285405 0 0 0 346.86133 227.26953 L 346.86133 288.16992 A 53.285405 53.285405 0 0 0 390.53711 310.9707 A 53.285405 53.285405 0 0 0 443.82227 257.68359 A 53.285405 53.285405 0 0 0 390.53711 204.39844 z M 504.64453 204.39844 A 53.28544 53.28544 0 0 0 451.35938 257.68359 A 53.28544 53.28544 0 0 0 504.64453 310.9707 A 53.28544 53.28544 0 0 0 557.92969 257.68359 A 53.28544 53.28544 0 0 0 504.64453 204.39844 z M 763.57227 204.39844 C 754.77341 204.3985 746.48097 206.54542 739.16797 210.32227 L 739.16797 205.43359 L 710.4043 205.43359 L 710.4043 254.33203 C 710.34125 255.34713 710.30035 256.36873 710.29492 257.39844 L 710.4043 257.39844 L 710.4043 310.43359 L 739.16797 310.43359 L 739.16797 254.69531 C 740.7146 242.63376 751.00801 233.30849 763.49023 233.30859 C 776.89119 233.3085 787.77646 244.05463 788.01562 257.39844 L 788.08398 257.39844 L 788.08398 310.43359 L 816.8457 310.43359 L 816.8457 257.39844 L 816.84961 257.39844 C 816.69505 228.10198 792.90498 204.39864 763.57227 204.39844 z M 879.28711 204.39844 A 53.28537 53.28537 0 0 0 826.00195 257.68359 A 53.28537 53.28537 0 0 0 879.28711 310.9707 A 53.28537 53.28537 0 0 0 906.87305 303.19727 L 906.87305 315.43359 L 906.93359 315.43359 C 906.93371 315.46565 906.93555 315.49721 906.93555 315.5293 C 906.93565 330.15539 895.07721 342.01181 880.45117 342.01172 C 869.41038 342.01179 859.95024 335.25404 855.97461 325.65039 L 829.80859 336.34375 C 838.04983 356.24806 857.65377 370.25568 880.53711 370.25586 C 910.82966 370.25567 935.3894 345.71695 935.42773 315.43359 L 935.2793 315.43359 L 935.2793 205.43359 L 906.87305 205.43359 L 906.87305 212.15625 A 53.28537 53.28537 0 0 0 879.28711 204.39844 z M 671.38672 205.43359 L 671.38672 310.43359 L 700.14844 310.43359 L 700.14844 205.43359 L 671.38672 205.43359 z M 390.45508 234.73828 A 23.107179 23.107179 0 0 1 413.5625 257.8457 A 23.107179 23.107179 0 0 1 390.45508 280.95312 A 23.107179 23.107179 0 0 1 367.34766 257.8457 A 23.107179 23.107179 0 0 1 390.45508 234.73828 z M 504.5625 234.73828 A 23.107194 23.107194 0 0 1 527.66992 257.8457 A 23.107194 23.107194 0 0 1 504.5625 280.95312 A 23.107194 23.107194 0 0 1 481.45508 257.8457 A 23.107194 23.107194 0 0 1 504.5625 234.73828 z M 879.20508 234.73828 A 23.107164 23.107164 0 0 1 902.3125 257.8457 A 23.107164 23.107164 0 0 1 879.20508 280.95312 A 23.107164 23.107164 0 0 1 856.09766 257.8457 A 23.107164 23.107164 0 0 1 879.20508 234.73828 z "
       transform="translate(230.92858,242.96298)"
       id="rect4201" />
  </g>
</svg>
